X:6842
T:The Golden Pheasant
O:england
S:78rpm record (Adam Rennie & his Band)
M:6/8
L:1/8
K:A
C/D/|E2A E2A|E2A c2A|E2A d2c|cBA B2E|E2A E2A|E2A c2d|
e2A F2A|ABG A2:|A|G2B B2e|A2c c2e|B2e e2g|fe^d e2B|
G2B B2e|A2c c2e|B2e c2a|gf^d e2=d|c2B A2d|c2B A2E|
F2A E2e|edc B2d|cdB A2d|cdB A2a|e2a fad|cdB A2|]


